X:1
T:Title
%%score [ ( 1 2 ) ( 3 4 ) ]
L:1/8
Q:1/4=120
M:4/4
K:G
V:1 treble nm="Midi_74" snm=" "
V:2 treble 
V:3 bass nm="Midi_74"
V:4 bass 
V:1
"^Cecil Frances Alexander" D2 F2 | G3"^Once in royal David's city" G GF GA | %2
w: Once in|roy- al Da * vid's *|
w: ||
w: And our|eyes at last * shall *|
 A2 G2 G2"^H.J. Gauntlett,\nharm. A.H. Mann" B2 |[M:4/4] d3 B BA GF | G4 || D2 F2 | G3 G GF GA | %7
w: ci- ty stood a|low * cat * tle *|shed,|where a|mo- ther laid * her *|
w: |||||
w: see him, through his|own * deem ~~~~~~- ing *|love,|for that|child so dear * and *|
 A2 G2 G2 B2 | d3 B BA GF | G4 || e2 e2 | d3 G c2 c2 | (B2 B2) e2 e2 | d3 B BA GF | (G2 G2) |] %15
w: ba- by in a|man * for * his *|bed:|Ma- ry|was that mo- ther|mild, * Je- sus|Christ her lit * tle *|child. *|
w: ||||||||
w: gen- tle is our|Lord * heav'n * a *|bove;|and he|leads his chil- dren|on * to the|place where he * is *|gone. *|
V:2
 D2 F2 | D2 D2 ^C2 C2 | D!courtesy!=C B,2 D2 G2 |[M:4/4] D2 D2 E2 D2 | D4 || D2 F2 | D2 D2 ^C2 C2 | %7
w: |||||||
w: He came|down to earth from|hea- * ven who is|God and Lord of|all,|and his|shel- ter was a|
w: |||||||
w: Not in|that poor low- ly|sta- * ble, with the|ox- en stand- ing|by,|we shall|see him; but in|
 D!courtesy!=C B,2 D2 G2 | D2 D2 E2 D2 | D4 || EF GA | D2 D2 E2 F2 | (G2 F2) EF GA | (DFG)G E2 D2 | %14
w: |||||||
w: sta- * ble, and his|cra- dle was a|stall;|with * the *|poor and mean and|low- ly lived * on *|earth * * our Sa- viour|
w: |||||||
w: hea * ven, set at|God's right hand on|high;|when * like *|stars his chil- dren|crowned * all * in *|white * * shall wait a-|
 (D2 D2) |] %15
w: |
w: ho- ly.|
w: |
w: round. *|
V:3
 B,2 C2 | D2 B,2 A,2 G,2 | F,2 G,2 B,2 D2 |[M:4/4] A,2 B,D DC B,A, | B,4 || B,2 C2 | %6
w: |||~~~~- ly * * * * *|||
w: |||* re * * * * *|||
 D2 B,2 A,2 G,2 | F,2 G,2 B,2 D2 | A,2 B,D DC B,A, | B,4 || G,2 C2 | B,2 B,2 C2 D2 | %12
w: ||* ger * * * * *||||
w: ||* in * * * * *||||
"^This edition  Andrew Sims 2014" (D2 D2) C2 C2 | (B,CD)D DC B,A, | (B,2 B,2) |] %15
w: |||
w: |||
V:4
 B,2 A,2 | B,2 G,2 E,2 A,,2 | D,2 G,,2 B,2 G,2 |[M:4/4] F,2 G,2 C,2 D,2 | G,4 || B,2 A,2 | %6
 B,2 G,2 E,2 A,,2 | D,2 G,,2 B,2 G,2 | F,2 G,2 C,2 D,2 | G,4 || C,D, E,F, | G,2 B,2 A,2 D,2 | %12
 (G,2 G,2) C,D, E,F, | (G,A,B,)G, C,2 D,2 | (G,,2 G,,2) |] %15

